data/styles/clear/style-night/symbols/hotel-m.svg

<svg height="24" viewBox="0 0 24 24" width="24"><g fill="none" fill-rule="evenodd"><circle cx="12" cy="12" fill="#fff" opacity=".4" r="12"/><circle cx="12" cy="12" fill="#332721" r="11"/><path d="m6.92307692 12.4444444h2.76923077v2.2222223h-2.76923077v1.3333333h-.92307692v-7.54696369c0-.25020505.21409255-.45303631.46153846-.45303631.25490066 0 .46153846.19775391.46153846.45303631zm10.15384618-.8888888h.9230769v4.4444444h-.9230769zm-8.30769233.2222222c-.63725164 0-1.15384615-.4974614-1.15384615-1.1111111 0-.6136498.51659451-1.11111114 1.15384615-1.11111114.63725163 0 1.15384615.49746134 1.15384615 1.11111114 0 .6136497-.51659452 1.1111111-1.15384615 1.1111111zm1.84615383-1.5555556 4.0396741.3241714c.8277575.066425 1.4987875.7890459 1.4987875 1.6281487v2.0476799l-5.5384616 1.3333334z" fill="#fff" opacity=".6"/></g></svg>

<svg width="24" height="24" viewBox="0 0 24 24">
  <g fill="none" fill-rule="evenodd">
    <circle cx="12" cy="12" r="12" fill="#FFF" opacity=".4"/>
    <circle cx="12" cy="12" r="11" fill="#332721"/>
    <path fill="#FFF" d="M6,8.45303631 C6,8.20283126 6.21409255,8 6.46153846,8 C6.71643912,8 6.92307692,8.19775391 6.92307692,8.45303631 L6.92307692,16 L6,16 L6,8.45303631 Z M17.0769231,11.5555556 L18,11.5555556 L18,16 L17.0769231,16 L17.0769231,11.5555556 Z M8.76923077,11.7777778 C8.13197913,11.7777778 7.61538462,11.2803164 7.61538462,10.6666667 C7.61538462,10.0530169 8.13197913,9.55555556 8.76923077,9.55555556 C9.4064824,9.55555556 9.92307692,10.0530169 9.92307692,10.6666667 C9.92307692,11.2803164 9.4064824,11.7777778 8.76923077,11.7777778 Z M6.92307692,12.4444444 L9.69230769,12.4444444 L9.69230769,14.6666667 L6.92307692,14.6666667 L6.92307692,12.4444444 Z M10.6153846,10.2222222 L14.6550587,10.5463936 C15.4828162,10.6128186 16.1538462,11.3354395 16.1538462,12.1745423 L16.1538462,14.2222222 L10.6153846,15.5555556 L10.6153846,10.2222222 Z" opacity=".6"/>
  </g>
</svg>
